Newaita-dark/.LP/24/network-wireless-secure-signal-none.svg

<svg xmlns="http://www.w3.org/2000/svg" xmlns:xlink="http://www.w3.org/1999/xlink" width="24px" height="24px" viewBox="0 0 24 24" version="1.1">
<g id="surface1">
<path style=" stroke:none;fill-rule:nonzero;fill:rgb(25.882354%,25.882354%,25.882354%);fill-opacity:0.392157;" d="M 11.90625 3.289062 C 7.945312 3.289062 4.308594 4.640625 1.4375 6.910156 L 3.128906 9.375 C 5.519531 7.429688 8.570312 6.265625 11.90625 6.265625 C 15.242188 6.265625 18.296875 7.429688 20.683594 9.375 L 22.378906 6.910156 C 19.503906 4.640625 15.871094 3.289062 11.90625 3.289062 Z M 11.90625 3.289062 "/>
<path style=" stroke:none;fill-rule:nonzero;fill:rgb(25.882354%,25.882354%,25.882354%);fill-opacity:0.392157;" d="M 11.90625 9.242188 C 9.199219 9.242188 6.726562 10.21875 4.824219 11.839844 L 6.523438 14.3125 C 7.9375 13.011719 9.828125 12.21875 11.90625 12.21875 C 13.988281 12.21875 15.878906 13.011719 17.289062 14.3125 L 18.992188 11.839844 C 17.085938 10.21875 14.613281 9.242188 11.90625 9.242188 Z M 11.90625 9.242188 "/>
<path style=" stroke:none;fill-rule:nonzero;fill:rgb(25.882354%,25.882354%,25.882354%);fill-opacity:0.392157;" d="M 11.90625 13.582031 C 10.53125 13.582031 9.425781 14.691406 9.425781 16.0625 C 9.425781 17.085938 10.039062 17.957031 10.914062 18.339844 L 10.914062 20.527344 C 10.914062 20.804688 11.136719 21.027344 11.410156 21.027344 L 12.402344 21.027344 C 12.679688 21.027344 12.898438 20.804688 12.898438 20.527344 L 12.898438 18.339844 C 13.777344 17.957031 14.386719 17.085938 14.386719 16.0625 C 14.386719 14.691406 13.28125 13.582031 11.90625 13.582031 Z M 11.90625 13.582031 "/>
</g>
</svg>

<svg xmlns="http://www.w3.org/2000/svg" width="24" height="24"><g fill="#424242" fill-opacity=".392"><path d="M11.906 3.29c-3.96 0-7.597 1.35-10.469 3.62L3.13 9.375a13.846 13.846 0 0 1 8.777-3.11c3.336 0 6.39 1.165 8.778 3.11l1.695-2.465a16.828 16.828 0 0 0-10.473-3.62zm0 0"/><path d="M11.906 9.242c-2.707 0-5.18.977-7.082 2.598l1.7 2.473a7.922 7.922 0 0 1 5.382-2.094c2.082 0 3.973.793 5.383 2.094l1.703-2.473a10.895 10.895 0 0 0-7.086-2.598zm0 0"/><path d="M11.906 13.582a2.476 2.476 0 0 0-2.48 2.48 2.48 2.48 0 0 0 1.488 2.278v2.187c0 .278.223.5.496.5h.992a.495.495 0 0 0 .496-.5V18.34a2.475 2.475 0 0 0 1.489-2.277 2.476 2.476 0 0 0-2.48-2.481zm0 0"/></g></svg>
